Papirus/22x22/actions/hotpixels.svg

<?xml version="1.0" encoding="UTF-8" standalone="no"?>
<!--Created with Inkscape (http://www.inkscape.org/)-->
<svg id="svg4355" xmlns:rdf="http://www.w3.org/1999/02/22-rdf-syntax-ns#" xmlns="http://www.w3.org/2000/svg" height="22" width="22" version="1.1" xmlns:cc="http://creativecommons.org/ns#" xmlns:dc="http://purl.org/dc/elements/1.1/">
 <defs id="defs4357">
 </defs>
 <metadata id="metadata4360">
  <rdf:RDF>
   <cc:Work rdf:about="">
    <dc:format>image/svg+xml</dc:format>
    <dc:type rdf:resource="http://purl.org/dc/dcmitype/StillImage"/>
    <dc:title/>
   </cc:Work>
  </rdf:RDF>
 </metadata>
 <g id="layer1" transform="translate(-544.57 -742.93)">
  <path id="path4149" opacity=".5" d="m4 4v14h14v-14h-14zm9 9h2v2h-2v-2z" transform="translate(544.57 742.93)"/>
 </g>
</svg>

<?xml version="1.0" encoding="UTF-8" standalone="no"?>
<!--Created with Inkscape (http://www.inkscape.org/)-->
<svg xmlns:dc="http://purl.org/dc/elements/1.1/" xmlns:cc="http://creativecommons.org/ns#" xmlns:rdf="http://www.w3.org/1999/02/22-rdf-syntax-ns#" xmlns:svg="http://www.w3.org/2000/svg" xmlns="http://www.w3.org/2000/svg" xmlns:sodipodi="http://sodipodi.sourceforge.net/DTD/sodipodi-0.dtd" xmlns:inkscape="http://www.inkscape.org/namespaces/inkscape" width="22" height="22" id="svg4355" version="1.1" inkscape:version="0.91 r13725" sodipodi:docname="hotpixels.svg">
    <defs id="defs4357">
        <style type="text/css" id="current-color-scheme">
            .ColorScheme-Text { color:#4d4d4d; } .ColorScheme-Background { color:#eff0f1; } .ColorScheme-Highlight { color:#3daee9; } .ColorScheme-ViewText { color:#31363b; } .ColorScheme-ViewBackground { color:#fcfcfc; } .ColorScheme-ViewHover { color:#93cee9; } .ColorScheme-ViewFocus{ color:#3daee9; } .ColorScheme-ButtonText { color:#31363b; } .ColorScheme-ButtonBackground { color:#eff0f1; } .ColorScheme-ButtonHover { color:#93cee9; } .ColorScheme-ButtonFocus{ color:#3daee9; }
        </style>
    </defs>
    <sodipodi:namedview id="base" pagecolor="#000000" bordercolor="#666666" borderopacity="1.0" inkscape:pageopacity="0.0" inkscape:pageshadow="2" inkscape:zoom="23.414198" inkscape:cx="-5.8810616" inkscape:cy="9.8178098" inkscape:document-units="px" inkscape:current-layer="layer1" showgrid="false" width="0px" height="0px" fit-margin-top="0" fit-margin-left="0" fit-margin-right="0" fit-margin-bottom="0" inkscape:window-width="1600" inkscape:window-height="847" inkscape:window-x="0" inkscape:window-y="30" inkscape:window-maximized="1" inkscape:showpageshadow="false" inkscape:snap-bbox="true" inkscape:snap-global="true" inkscape:object-nodes="true" showguides="false">
        <inkscape:grid type="xygrid" id="grid4114"/>
        <sodipodi:guide position="2,13" orientation="18,0" id="guide4120"/>
        <sodipodi:guide position="2.0000011,1.9999962" orientation="0,18" id="guide4122"/>
        <sodipodi:guide position="20.000001,1.9999962" orientation="-18,0" id="guide4124"/>
        <sodipodi:guide position="20.000001,19.999996" orientation="0,-18" id="guide4126"/>
        <sodipodi:guide position="3,6" orientation="16,0" id="guide4128"/>
        <sodipodi:guide position="3.0000011,2.9999962" orientation="0,16" id="guide4130"/>
        <sodipodi:guide position="19.000001,2.9999962" orientation="-16,0" id="guide4132"/>
        <sodipodi:guide position="6,19" orientation="0,-16" id="guide4134"/>
    </sodipodi:namedview>
    <metadata id="metadata4360">
        <rdf:RDF>
            <cc:Work rdf:about="">
                <dc:format>
                    image/svg+xml
                </dc:format>
                <dc:type rdf:resource="http://purl.org/dc/dcmitype/StillImage"/>
                <dc:title/>
            </cc:Work>
        </rdf:RDF>
    </metadata>
    <g inkscape:label="Capa 1" inkscape:groupmode="layer" id="layer1" transform="translate(-544.57141,-742.93359)">
        <path style="opacity:0.5;fill:#000000;fill-opacity:1;stroke:none;stroke-linecap:round" d="M 4 4 L 4 18 L 18 18 L 18 4 L 4 4 z M 13 13 L 15 13 L 15 15 L 13 15 L 13 13 z " transform="translate(544.57141,742.93359)" id="path4149"/>
    </g>
</svg>
